icons/OpenLotus/actions/22/embosstool.svg

<?xml version="1.0" encoding="UTF-8" standalone="no"?>
<!-- Created with Inkscape (http://www.inkscape.org/) -->

<svg
   xmlns:dc="http://purl.org/dc/elements/1.1/"
   xmlns:cc="http://creativecommons.org/ns#"
   xmlns:rdf="http://www.w3.org/1999/02/22-rdf-syntax-ns#"
   xmlns:svg="http://www.w3.org/2000/svg"
   xmlns="http://www.w3.org/2000/svg"
   xmlns:sodipodi="http://sodipodi.sourceforge.net/DTD/sodipodi-0.dtd"
   xmlns:inkscape="http://www.inkscape.org/namespaces/inkscape"
   width="22.000002"
   height="22"
   viewBox="0 0 22.000002 22"
   version="1.1"
   id="main"
   inkscape:version="0.92+devel (5e751a51be, 2017-10-02, custom)"
   sodipodi:docname="embosstool.svg">
  <defs
     id="ol-defs">
    <style
       id="current-color-scheme"
       type="text/css">
      .ColorScheme-Text {
        color:#f2f2f2;
      }
      </style>
  </defs>
  <sodipodi:namedview
     id="base"
     pagecolor="#002466"
     bordercolor="#ffffff"
     borderopacity="0.30"
     inkscape:pageopacity="1"
     inkscape:pageshadow="0"
     inkscape:zoom="13.140625"
     inkscape:document-units="px"
     inkscape:current-layer="main"
     inkscape:document-rotation="0"
     showgrid="false"
     inkscape:showpageshadow="false"
     borderlayer="true"
     inkscape:window-width="1920"
     inkscape:window-height="1027"
     inkscape:window-x="0"
     inkscape:window-y="24"
     inkscape:window-maximized="1"
     units="px"
     inkscape:cx="6.5947884"
     inkscape:cy="8.0269054" />
  <metadata
     id="metadata5">
    <rdf:RDF>
      <cc:Work
         rdf:about="">
        <dc:format>image/svg+xml</dc:format>
        <dc:type
           rdf:resource="http://purl.org/dc/dcmitype/StillImage" />
        <dc:title></dc:title>
      </cc:Work>
    </rdf:RDF>
  </metadata>
  <g
     id="g834"
     style="stroke:none">
    <path
       style="fill:none;stroke:none;stroke-width:1"
       d="M 0,0 H 22.000001 V 22 H 0 Z"
       id="boundary"
       inkscape:label="#boundary"
       inkscape:connector-curvature="0" />
    <path
       inkscape:label="#"
       id="path814"
       class="ColorScheme-Text"
       d="m 4.000001,4 v 14 h 14 V 4 Z m 1,1 h 12 v 12 h -12 z m 3,3 v 6 h 6 V 8 Z m 1,1 h 4 v 4 h -4 z"
       style="display:inline;opacity:0.6;fill:#d0d0d0;fill-opacity:1;stroke:none"
       inkscape:connector-curvature="0" />
    <path
       inkscape:label="#"
       id="path816"
       class="ColorScheme-Text"
       d="m 3.000001,3 v 1 14 1 h 15 1 V 18 4 3 h -1 -14 z m 1,1 h 14 v 14 h -14 z m 3,3 v 1 6 1 h 8 V 14 8 7 h -1 -6 z m 1,1 h 6 v 6 h -6 z"
       style="display:inline;opacity:0.3;fill:#d0d0d0;fill-opacity:1;stroke:none"
       inkscape:connector-curvature="0" />
  </g>
</svg>

<svg xmlns="http://www.w3.org/2000/svg" viewBox="0 0 22 22">
  <defs id="defs3051">
    <style type="text/css" id="current-color-scheme">
      .ColorScheme-Text {
        color:#f2f2f2;
      }
      </style>
  </defs>
 <path 
     style="fill:currentColor;fill-opacity:1;stroke:none" 
     d="M 4 4 L 4 18 L 18 18 L 18 4 L 4 4 z M 5 5 L 17 5 L 17 17 L 5 17 L 5 5 z M 8 8 L 8 14 L 14 14 L 14 8 L 8 8 z M 9 9 L 13 9 L 13 13 L 9 13 L 9 9 z "
     class="ColorScheme-Text"
     />
 <path 
     style="fill:currentColor;fill-opacity:0.5;stroke:none" 
     d="M 3 3 L 3 4 L 3 18 L 3 19 L 18 19 L 19 19 L 19 18 L 19 4 L 19 3 L 18 3 L 4 3 L 3 3 z M 4 4 L 18 4 L 18 18 L 4 18 L 4 4 z M 7 7 L 7 8 L 7 14 L 7 15 L 15 15 L 15 14 L 15 8 L 15 7 L 14 7 L 8 7 L 7 7 z M 8 8 L 14 8 L 14 14 L 8 14 L 8 8 z "
     class="ColorScheme-Text"
     />
</svg>
